coreui/free/cil-language.svg

<svg xmlns="http://www.w3.org/2000/svg" viewBox="0 0 512 512">
  <path fill="var(--ci-primary-color, currentColor)" d="M320,24H16V328H192V496H496V192H320ZM148.305,96,98.093,239.3H132l8.166-23.3H192v80H48V56H288V192H221.332L187.7,96Zm36.317,88H151.378L168,136.562ZM464,224V464H224V224Z" class="ci-primary"/>
  <path fill="var(--ci-primary-color, currentColor)" d="M317.432,368.48A136.761,136.761,0,0,0,327.521,382.6q-17.4,9.384-39.521,9.4v32c24.141,0,45.71-6.408,64-18.824C370.29,417.592,391.859,424,416,424V392q-22.075,0-39.52-9.407a136.574,136.574,0,0,0,10.088-14.113A166.212,166.212,0,0,0,406.662,320H424V288H368V264H336v24H280v32h17.338A166.212,166.212,0,0,0,317.432,368.48ZM373.53,320a133.013,133.013,0,0,1-14.1,31.52A104.39,104.39,0,0,1,352,361.968a103.546,103.546,0,0,1-6.93-9.651A132.384,132.384,0,0,1,330.466,320Z" class="ci-primary"/>
</svg>

<svg viewBox="0 0 512 512" xmlns="http://www.w3.org/2000/svg"><g><path d="M320 24H16v304h176v168h304V192H320ZM148.305 96L98.093 239.3H132l8.16-23.3h51.834v80h-144V56h240v136h-66.67l-33.64-96Zm36.31 88h-33.244l16.62-47.44Zm279.378 40v240h-240V224Z"/><path d="M317.43 368.48v-.001c3.06 4.91 6.43 9.63 10.08 14.12q-17.4 9.38-39.53 9.4v32c24.14 0 45.71-6.41 64-18.83 18.29 12.41 39.85 18.82 64 18.82v-32q-22.08 0-39.52-9.41v0c3.65-4.49 7.02-9.2 10.08-14.113l-.001-.001c9.22-15 16-31.36 20.09-48.48h17.33v-32h-56v-24h-32v24h-56v32h17.33 0c4.08 17.12 10.87 33.48 20.09 48.48ZM373.52 320v0c-3.32 11.07-8.06 21.67-14.1 31.52v0c-2.27 3.63-4.75 7.12-7.43 10.44v0c-2.5-3.09-4.81-6.31-6.93-9.66v0c-6.3-10.07-11.21-20.94-14.61-32.32Z"/></g></svg>
